X: 15590
T: Gneevgullia
R: reel
M: 4/4
K: Eminor
E3F G2EF|GBAG FDDF|EDEF GFGB|1 dBAF BEED:|2 dBAF BE~E2||
efed (3B^cd ef|geag fddf|efed Bdeg|fedf ~e3d|
Bded (3B^cd ef|~g3e fddf|~g3e dfed|B2AF BFAF||

